public/images/icons/pic.svg

<svg width="11" height="12" fill="none" xmlns="http://www.w3.org/2000/svg"><path d="M4.39773 11.0455h1.70454l-.14204-3.9063 3.30255 2.09518.85232-1.49148-3.48016-1.81108 3.48016-1.81108-.85232-1.49148-3.30255 2.09517.14204-3.906249H4.39773l.14204 3.906249-3.30255-2.09517-.852277 1.49148L3.86506 5.93182.384943 7.7429l.852277 1.49148L4.53977 7.1392l-.14204 3.9063z" fill="#E02020"/></svg>

<svg width="11" height="12" viewBox="0 0 11 12" fill="none" xmlns="http://www.w3.org/2000/svg">
<path d="M4.39773 11.0455H6.10227L5.96023 7.1392L9.26278 9.23438L10.1151 7.7429L6.63494 5.93182L10.1151 4.12074L9.26278 2.62926L5.96023 4.72443L6.10227 0.818181H4.39773L4.53977 4.72443L1.23722 2.62926L0.384943 4.12074L3.86506 5.93182L0.384943 7.7429L1.23722 9.23438L4.53977 7.1392L4.39773 11.0455Z" fill="#E02020"/>
</svg>
